X:241
T:Jesus Wants All Of His Children
%%stretchlast false
M:4/4
L:1/4
K:C clef=C1
"^iii¹"[Ge] [Ge] [Ge] "^v"[Gd] | "^i"[Gc] "^iii¹"[Ge] "^vi"[Ga] "^v"[Gg] | "^iv"[Fc] "^i"[Gc'] "^iv"[Fc'] "^i"[cg] | "^I"[ce] "^v"[Gd] [Gd] [Gd] | G [Gd] "^iii¹"[Ge] "^v7"[Gf] | g "^vi"[Ga] "^V"[Gb] "^i"[Gc'] | "^iii¹"[Ge] "^ii¹"[Fd] "^ii"[Df] "^I"[ce] | "^ii"[Ad] "^iv"[Fc] "^ii7"[Dc] "^vi"[Ac] | F D G F | F D G E3 |]
